tools/download-figma-icons/icons/solid/campfire.svg

<svg width="24" height="24" viewBox="0 0 24 24" fill="none" xmlns="http://www.w3.org/2000/svg">
<path fill-rule="evenodd" clip-rule="evenodd" d="M16.2069 6.52676C14.9634 4.92102 13.5519 3.10154 13.0592 0.329568C13.0352 0.19382 12.9399 0.0805708 12.8079 0.0288213C12.6767 -0.0221782 12.5252 -0.00492838 12.4104 0.0760708C7.84448 3.30854 5.62526 6.8635 5.62526 10.9427C5.62526 15.7382 10.585 16.4882 10.6345 16.4957C10.6555 16.4987 10.675 16.4994 10.6945 16.4994C10.8452 16.4994 10.984 16.4199 11.0567 16.2894C11.1385 16.1409 11.1152 15.9602 10.999 15.8357C10.9877 15.8229 9.83571 14.5712 9.97821 12.9317C10.06 12.0099 10.5295 11.1295 11.3777 10.306C11.4767 11.5052 12.2724 12.2604 12.9384 12.8927C13.3134 13.2489 13.6674 13.5849 13.8047 13.9254C14.1939 14.8892 13.4552 15.8522 13.4469 15.8619C13.3457 15.9932 13.3367 16.1709 13.4252 16.3104C13.5137 16.4499 13.6892 16.5219 13.8474 16.4934C13.8947 16.4852 18.4591 15.6302 18.3736 10.936C18.3436 9.28073 17.3536 8.00424 16.2069 6.52676ZM1.1943 21.0068C0.379804 21.1808 -0.139941 21.984 0.0333071 22.8008C0.206555 23.6183 1.0068 24.1395 1.82204 23.9663L10.1867 22.1828L2.93353 20.6363L1.1943 21.0068ZM22.8053 19.4926C23.6198 19.3186 24.1395 18.5153 23.967 17.6986C23.793 16.8811 22.9928 16.3591 22.1776 16.5331L13.8136 18.3166L21.0668 19.8631L22.8053 19.4926ZM23.9671 22.8008C23.7931 23.6183 22.9928 24.1395 22.1776 23.9663L1.1943 19.4926C0.379804 19.3186 -0.139941 18.5153 0.0333071 17.6986C0.206555 16.8811 1.0068 16.3591 1.82204 16.5331L22.8053 21.0068C23.6198 21.1808 24.1396 21.9841 23.9671 22.8008Z" fill="black"/>
</svg>

<svg width="24" height="24" viewBox="0 0 24 24" fill="none" xmlns="http://www.w3.org/2000/svg"><path fill-rule="evenodd" clip-rule="evenodd" d="M16.207 6.527C14.963 4.92 13.552 3.102 13.059.33a.4.4 0 0 0-.251-.301.427.427 0 0 0-.398.047C7.844 3.31 5.625 6.863 5.625 10.943c0 4.795 4.96 5.545 5.01 5.553a.413.413 0 0 0 .422-.206.387.387 0 0 0-.058-.454c-.011-.013-1.163-1.265-1.02-2.904.081-.922.55-1.803 1.399-2.626.099 1.2.894 1.954 1.56 2.587.375.356.73.692.867 1.032.389.964-.35 1.927-.358 1.937a.39.39 0 0 0-.022.448.42.42 0 0 0 .422.183c.048-.008 4.612-.863 4.527-5.557-.03-1.655-1.02-2.932-2.167-4.41ZM1.194 21.007a1.513 1.513 0 0 0 .628 2.96l8.365-1.784-7.253-1.547-1.74.37Zm21.611-1.514a1.514 1.514 0 0 0-.627-2.96l-8.364 1.784 7.253 1.546 1.738-.37Zm1.162 3.308a1.51 1.51 0 0 1-1.79 1.165L1.195 19.493a1.513 1.513 0 0 1 .628-2.96l20.983 4.474a1.514 1.514 0 0 1 1.162 1.794Z" fill="currentColor"/></svg>
